X:233
T: Wo wu men qian yi shu tao
N: C1718
O: China, Hunan, Hengshan
S: I, 498]
R: Shange, Lianhuan shange. Xin minge]
M: 3/8
L: 1/16
K: C
e6- | e4A2
e2e2c2 | Acc2A2 | e2e2cA | A2c4- | c2A2_A2 | E4
A2 | e2c2e2ge | c2ege2- | e4c2 | A2_A2E2 | A6
AGE2GA | e2c2e2g2 | e2c2g2e2
c2c2e2c2 | g2c2e2ge
c2cAc2e2 | A2A2e2c2
cAc2c2 | A2A2e2e2
e2e2c2c2 | e2A2e2c2
G2cAA2A2 | e2c2A2c2
cgeceec2 | e2c2A2
c2Ace2g2 | e2g2c2e2 | e6 | A6- | A2_A2E2 | A6- | A6

